X:127 
T:Mickey Connell's Hornpipe
S:Piggott Family MS
F:file ID: cre.5/127mick_con
B:CRE5.216 (CornphÃÂÃÂÃÂÃÂ­opa MhicÃÂÃÂÃÂÃÂ­ UÃÂÃÂÃÂÃÂ­ Chonaill)
Q:150
M:C
R:hornpipe
K:G
(3DEF|GABc dcec|dg~g2 bgdB|cAec B2dB|A2GE DcBA|
GABc dcec|dg~g2 bgdB|cedc BGAF|G2GF G2:|
bg|afec d2bg|afec d2bg|"11"afge fdec|"12"dBcA BGAF|
GABc dcec|dg~g2 bgdB|cedc BGAF|G2GF G2:|

%%%

